Origami/24x24/apps/thermal-monitor.svg

<svg width="24" height="24" version="1" xmlns="http://www.w3.org/2000/svg">
 <rect transform="rotate(90)" x="15" y="-21" width="1" height="19" style="fill:#8e8e8e"/>
 <rect transform="rotate(90)" x="13" y="-21" width="1" height="19" style="fill:#8e8e8e"/>
 <rect transform="rotate(90)" x="11" y="-21" width="1" height="19" style="fill:#8e8e8e"/>
 <rect transform="rotate(90)" x="9" y="-21" width="1" height="19" style="fill:#8e8e8e"/>
 <rect transform="rotate(90)" x="17" y="-21" width="1" height="19" style="fill:#8e8e8e"/>
 <rect transform="rotate(90)" x="19" y="-21" width="1" height="19" style="fill:#8e8e8e"/>
 <rect transform="rotate(90)" x="7" y="-21" width="1" height="19" style="fill:#8e8e8e"/>
 <rect transform="rotate(90)" x="5" y="-21" width="1" height="19" style="fill:#8e8e8e"/>
 <rect x="11" y="3" width="1" height="19" style="fill:#8e8e8e"/>
 <rect x="9" y="3" width="1" height="19" style="fill:#8e8e8e"/>
 <rect x="7" y="3" width="1" height="19" style="fill:#8e8e8e"/>
 <rect x="5" y="3" width="1" height="19" style="fill:#8e8e8e"/>
 <rect x="13" y="3" width="1" height="19" style="fill:#8e8e8e"/>
 <rect x="15" y="3" width="1" height="19" style="fill:#8e8e8e"/>
 <rect x="17" y="3" width="1" height="19" style="fill:#8e8e8e"/>
 <rect x="3" y="3" width="1" height="19" style="fill:#8e8e8e"/>
 <rect x="19" y="3" width="1" height="19" style="fill:#8e8e8e"/>
 <rect transform="matrix(0,-1,-1,0,0,0)" x="-21.5" y="-20" width="17" height="17" rx=".85" ry="1.063" style="opacity:.2"/>
 <rect transform="matrix(0,-1,-1,0,0,0)" x="-21" y="-20" width="17" height="17" rx=".85" ry="1.063" style="fill:#b7b7b7"/>
 <path d="M 4.0625,4 C 3.473875,4 3,4.3787094 3,4.8496094 v 0.5 C 3,4.8787094 3.473875,4.5 4.0625,4.5 h 14.875 C 19.526125,4.5 20,4.8787094 20,5.3496094 v -0.5 C 20,4.3787094 19.526125,4 18.9375,4 Z" style="fill:#ffffff;opacity:.2"/>
 <path d="m11.000001 5.5000004c-1.108 0-2.000001 0.892-2.000001 1.9999997v4.9999999c0 0.0135 0.0035 0.0255 4e-3 0.039a4 4 0 0 0 -2.004 3.461 4 4 0 0 0 4.000001 4 4 4 0 0 0 4 -4 4 4 0 0 0 -2.004 -3.463c0-0.013 4e-3 -0.025 4e-3 -0.037v-4.9999999c0-1.1079997-0.892-1.9999997-2-1.9999997zm0 1c0.554 0 1 0.446 1 0.9999997v5.6759999a3 3 0 0 1 2 2.824 3 3 0 0 1 -3 3 3 3 0 0 1 -3.000001 -3 3 3 0 0 1 2.000001 -2.825v-5.6749999c0-0.5539997 0.446-0.9999997 1-0.9999997z" style="fill-rule:evenodd;opacity:.5"/>
 <path d="m10.000001 11.0002v2.6748c-1.1975007 0.423-1.998501 1.555-2.000001 2.825 0 1.6568 1.343201 3 3.000001 3s3-1.3432 3-3c-0.0018-1.2698-0.8028-2.401-2-2.8242v-2.676z" style="opacity:.2"/>
 <path d="m10.000001 10.5v2.6748c-1.1975007 0.423-1.998501 1.555-2.000001 2.825 0 1.6568 1.343201 3 3.000001 3s3-1.3432 3-3c-0.0018-1.2698-0.8028-2.401-2-2.8242v-2.676z" style="fill:#f75f5f"/>
</svg>

<svg xmlns="http://www.w3.org/2000/svg" width="24" height="24" version="1">
 <rect style="fill:#8e8e8e" width="1" height="19" x="15" y="-21" transform="rotate(90)"/>
 <rect style="fill:#8e8e8e" width="1" height="19" x="13" y="-21" transform="rotate(90)"/>
 <rect style="fill:#8e8e8e" width="1" height="19" x="11" y="-21" transform="rotate(90)"/>
 <rect style="fill:#8e8e8e" width="1" height="19" x="9" y="-21" transform="rotate(90)"/>
 <rect style="fill:#8e8e8e" width="1" height="19" x="17" y="-21" transform="rotate(90)"/>
 <rect style="fill:#8e8e8e" width="1" height="19" x="19" y="-21" transform="rotate(90)"/>
 <rect style="fill:#8e8e8e" width="1" height="19" x="7" y="-21" transform="rotate(90)"/>
 <rect style="fill:#8e8e8e" width="1" height="19" x="5" y="-21" transform="rotate(90)"/>
 <rect style="fill:#8e8e8e" width="1" height="19" x="11" y="3"/>
 <rect style="fill:#8e8e8e" width="1" height="19" x="9" y="3"/>
 <rect style="fill:#8e8e8e" width="1" height="19" x="7" y="3"/>
 <rect style="fill:#8e8e8e" width="1" height="19" x="5" y="3"/>
 <rect style="fill:#8e8e8e" width="1" height="19" x="13" y="3"/>
 <rect style="fill:#8e8e8e" width="1" height="19" x="15" y="3"/>
 <rect style="fill:#8e8e8e" width="1" height="19" x="17" y="3"/>
 <rect style="fill:#8e8e8e" width="1" height="19" x="3" y="3"/>
 <rect style="fill:#8e8e8e" width="1" height="19" x="19" y="3"/>
 <rect style="opacity:0.2" width="17" height="17" x="-21.5" y="-20" rx=".85" ry="1.063" transform="matrix(0,-1,-1,0,0,0)"/>
 <rect style="fill:#b7b7b7" width="17" height="17" x="-21" y="-20" rx=".85" ry="1.063" transform="matrix(0,-1,-1,0,0,0)"/>
 <path style="opacity:0.2;fill:#ffffff" d="M 4.0625,4 C 3.473875,4 3,4.3787094 3,4.8496094 v 0.5 C 3,4.8787094 3.473875,4.5 4.0625,4.5 h 14.875 C 19.526125,4.5 20,4.8787094 20,5.3496094 v -0.5 C 20,4.3787094 19.526125,4 18.9375,4 Z"/>
 <path style="fill-rule:evenodd;opacity:0.5" d="M 11.000001,5.5000004 C 9.892001,5.5000004 9,6.3920004 9,7.5000001 V 12.5 c 0,0.0135 0.0035,0.0255 0.004,0.039 A 4,4 0 0 0 7,16 a 4,4 0 0 0 4.000001,4 4,4 0 0 0 4,-4 4,4 0 0 0 -2.004,-3.463 c 0,-0.013 0.004,-0.025 0.004,-0.037 V 7.5000001 c 0,-1.1079997 -0.892,-1.9999997 -2,-1.9999997 z m 0,1 c 0.554,0 1,0.446 1,0.9999997 V 13.176 a 3,3 0 0 1 2,2.824 3,3 0 0 1 -3,3 A 3,3 0 0 1 8,16 3,3 0 0 1 10.000001,13.175 V 7.5000001 c 0,-0.5539997 0.446,-0.9999997 1,-0.9999997 z"/>
 <path style="opacity:0.2" d="M 10.000001,11.0002 V 13.675 C 8.8025003,14.098 8.0015,15.23 8,16.5 c 0,1.6568 1.343201,3 3.000001,3 1.6568,0 3,-1.3432 3,-3 -0.0018,-1.2698 -0.8028,-2.401 -2,-2.8242 v -2.676 z"/>
 <path style="fill:#f75f5f" d="m 10.000001,10.5 v 2.6748 C 8.8025003,13.5978 8.0015,14.7298 8,15.9998 c 0,1.6568 1.343201,3 3.000001,3 1.6568,0 3,-1.3432 3,-3 -0.0018,-1.2698 -0.8028,-2.401 -2,-2.8242 v -2.676 z"/>
</svg>
